!!!!SEGMENT: pl-wtm--r-2301_troschel-wilhelm--ofiarowanie.krn
!!!cenid: 18xx:2260
!!!COM: Troschel, Wilhelm
!!!COM-rism: pe30024099
!!!CDT: 1823/08/23-1887/03/02
!!!CNT: Polish
!!!OTL: Ofiarowanie
!!!PDT:
!!!AGN:
!!!SMS-siglum: PL-Wtm
!!!SMS-shelfmark: R 2301
!!!NIFC-rismID: 1001114022
!!!URL-scan: http://repozytorium.nifc.pl/skany/pl-wtm-nut--r2301
!!!ONB-nifc:
!!!SMS-variant:
!!!SMS-altvar:
**kern	**kern	**dynam	**kern	**text	**dynam
*part2	*part2	*part2	*part1	*part1	*part1
*staff3	*staff2	*	*staff1	*staff1	*
*	*I"Fortepian	*	*I"Spiew	*	*
*clefF4	*clefG2	*	*clefG2	*	*
*k[b-e-a-d-]	*k[b-e-a-d-]	*	*k[b-e-a-d-]	*	*
*M4/4	*M4/4	*	*M4/4	*	*
*met(c)	*met(c)	*	*met(c)	*	*
=1	=1	=1	=1	=1	=1
*^	*	*	*	*	*
!	!	!	!	!LO:TUP:a:problem:klamra łukowa, numer:global	!	!
!	!	!	!	!LO:TX:a:t=Allegretto	!	!
(4dd->\	1e->	12reee	p	1r	.	.
.	.	12bb-/L 12eee-	.	.	.	.
.	.	12ee-/J	.	.	.	.
!LO:TX:t=P:problem:usunięte określenie wykonawcze: dolcisſimo (?)	!	!	!	!	!	!
4cc>\	.	12reee	.	.	.	.
.	.	12aan/L 12eee-	.	.	.	.
.	.	12ee-/J	.	.	.	.
4dd->\	.	12reee	.	.	.	.
.	.	12bb-/L 12eee-	.	.	.	.
.	.	12ee-/J	.	.	.	.
4b->\)	.	12rccc	.	.	.	.
.	.	12gg/L 12eee-	.	.	.	.
.	.	12ee-/J	.	.	.	.
=2	=2	=2	=2	=2	=2	=2
(4g>\	1E-	12rgg	.	1r	.	.
!	!	!LO:TX:t=P:problem:8b-poprawione na 8ee-	!	!	!	!
.	.	12ee-/L	.	.	.	.
!	!	!LO:TX:t=P:problem:8e- poprawione na 8b-	!	!	!	!
.	.	12b-/J	.	.	.	.
4f>\	.	12rgg	>	.	.	.
!	!	!LO:TX:t=P:problem:8a-poprawione na 8ee-	!	!	!	!
.	.	12ee-/L	.	.	.	.
!	!	!LO:TX:t=P:problem:8e- poprawione na 8a-	!	!	!	!
.	.	12a-/J	.	.	.	.
4e->\	.	12r	.	.	.	.
!	!	!LO:TX:t=P:problem:8g poprawione na 8ee-	!	!	!	!
.	.	12ee-/L	.	.	.	.
.	.	12e-/J 12g	.	.	.	.
4d->\)	.	12r	]	.	.	.
.	.	12g/L 12ee-	.	.	.	.
.	.	12e-/J	.	.	.	.
=3	=3	=3	=3	=3	=3	=3
!	!	!	!	!LO:TX:t=P:problem:usunięta dynamika p	!	!
!	!	!LO:TX:t=P:problem:usunięta dynamika p	!	!LO:TX:a:t=dolce	!	!
(4c/	1A-	12r	.	(>4e-/	Mi-	.
.	.	12a-/L	.	.	.	.
.	.	12e-/J	.	.	.	.
4Bn/	.	12r	.	4dn/	-łe	.
.	.	12a-/L	.	.	.	.
.	.	12dn/J	.	.	.	.
4d-X/	.	12r	.	4f/	dzwię-	.
.	.	12a-/L	.	.	.	.
.	.	12f/J	.	.	.	.
4c/)	.	12r	.	4e-/	-ki	.
.	.	12a-/L	.	.	.	.
.	.	12e-/J	.	.	.	.
=4	=4	=4	=4	=4	=4	=4
(4c/	1A-	12r	.	4e-/	ci-	.
.	.	12a-/L	.	.	.	.
.	.	12e-/J	.	.	.	.
4d-/	.	12r	.	4f/	-chu-	.
.	.	12a-/L	.	.	.	.
.	.	12f/J	.	.	.	.
4B-/	.	12r	.	4g/	-tecz-	.
.	.	12ee-/L	.	.	.	.
.	.	12g/J	.	.	.	.
4c/)	.	12r	.	4a-/)	-ko	.
.	.	12ee-/L	.	.	.	.
.	.	12a-/J	.	.	.	.
!!LO:LB:g=original
=5	=5	=5	=5	=5	=5	=5
(4d-/	1E-	12r	.	(>4b-/	Pły-	.
.	.	12ee-/L	.	.	.	.
.	.	12b-/J	.	.	.	.
4c/	.	12r	.	4an/	-ną	.
.	.	12ee-/L	.	.	.	.
.	.	12an/J	.	.	.	.
4d-/	.	12r	.	4b-/	przez	.
.	.	12ee-/L	.	.	.	.
.	.	12b-/J	.	.	.	.
4B-/)	.	12r	.	(4g/)	mą	.
.	.	12ee-/L	.	.	.	.
.	.	12g/J	.	.	.	.
=6	=6	=6	=6	=6	=6	=6
!	!	!LO:tup:b	!	!	!	!
(4E-/ 4G	1E-	12r	.	2e-/)	skroń.	.
!	!	!	!LO:HP:b=2:t=cres	!	!	!
.	.	12ee-/L	<	.	.	.
.	.	12e-/J	.	.	.	.
!	!	!LO:tup:b	!	!	!	!
4F/ 4A-	.	12r	.	.	.	.
.	.	12ee-/L	.	.	.	.
.	.	12e-/J	.	.	.	.
!	!	!LO:tup:b	!	!	!	!
4F#X/ 4An	.	12r	.	2r	.	.
.	.	12ee-/L	[	.	.	.
.	.	12e-/J	.	.	.	.
!	!	!LO:tup:b	!	!	!	!
4G/) 4B-	.	12r	.	.	.	.
!	!	!LO:TX:t=P:problem:8ee- poprawione na 8dd-	!	!	!	!
.	.	12dd-/L	.	.	.	.
.	.	12e-/J	.	.	.	.
=7	=7	=7	=7	=7	=7	=7
!	!	!LO:tup:b	!	!	!	!
(4A-/	1A-	12r	.	(4e-/	Dzwoń	.
.	.	12cc/L	.	.	.	.
.	.	12e-/J	.	.	.	.
!	!	!LO:tup:b	!LO:HP:b=2:t=cres	!	!	!LO:HP:b
4c/	.	12r	<	4a-/	wio-	<
.	.	12ee-/L	.	.	.	.
.	.	12e-/J	.	.	.	.
!	!	!LO:tup:b	!	!	!	!
4e-/	.	12r	.	4cc\	-śnia-	.
.	.	12cc/L	.	.	.	.
.	.	12e-/J	[	.	.	.
!	!	!LO:tup:b	!	!	!	!
4d-/)	.	12r	.	4b-\)	-na	[
.	.	12ee-/L	.	.	.	.
.	.	12e-/J	.	.	.	.
=8	=8	=8	=8	=8	=8	=8
!	!	!LO:tup:b	!	!	!	!
(4c/	2A-\	12r	.	(>4a-/	ma	.
.	.	12a-/L	.	.	.	.
.	.	12e-/J	.	.	.	.
!	!	!LO:tup:b	!LO:HP:b=2:t=cres	!	!	!LO:HP:b
4Bn/	.	12r	>	4g/	pio-	>
.	.	12g/L	.	.	.	.
.	.	12e-/J	.	.	.	.
!	!	!LO:tup:b	!	!	!	!
4c/	2AA-\	12r	.	4a-/	-snecz-	.
.	.	12a-/L	.	.	.	.
.	.	12c/J	]	.	.	.
!	!	!LO:tup:b	!	!	!	!
4A-/)	.	12r	.	4f/)	-ko	]
.	.	12f/L	.	.	.	.
.	.	12c/J	.	.	.	.
!!LO:LB:g=original
=9	=9	=9	=9	=9	=9	=9
!	!	!LO:TX:t=P:problem:dynamika pp poprawiona na p	!	!LO:TX:t=P:problem:dynamika pp poprawiona na p	!	!LO:DY:b
!	!	!LO:tup:b	!	!	!	!
(<4G/	1BB-	12r	p	(4b-/	Dzwoń	p
.	.	12e-/L 12b-	.	.	.	.
.	.	12B-/J	.	.	.	.
!	!	!LO:tup:b	!	!	!	!
*	*	*	*	*	*	*^
4G/	.	12r	.	4e-/)	da-	>	.
.	.	12e-/L 12b-	.	.	.	.	.
.	.	12B-/J	.	.	.	.	.
*	*	*	*^	*	*	*	*
!	!	!LO:tup:b	!LO:HP:b=2	!LO:HP:b=2:t=dim	!	!	!	!LO:HP:b:t=dim&colon;
4A-/	.	12r	>	>	4f/	-le-	.	>
.	.	12f/L 12b-	.	.	.	.	.	.
.	.	12B-/J	.	.	.	.	.	.
!	!	!LO:tup:b	!	!	!LO:TX:t=P:problem:usunięty łuk	!	!	!
4B-/)	.	12r	.	.	4g/	-ko	] ]	.
*	*	*	*	*	*	*	*v	*v
.	.	12g/L 12b-	.	.	.	.	.
.	.	12B-/J	]	.	.	.	.
*	*	*	*v	*v	*	*	*
=10	=10	=10	=10	=10	=10	=10
!	!	!LO:tup:b	!	!	!	!
4G/	1E-	12r	.	2e-/	dzwoń!	.
.	.	12e-/L 12b-	.	.	.	.
.	.	12B-/J	.	.	.	.
!	!	!LO:tup:b	!	!	!	!
4e-/	.	12r	.	.	.	.
.	.	12b-/L	.	.	.	.
.	.	12g/J	.	.	.	.
!	!	!LO:tup:b	!	!	!	!
4B-/	.	12r	.	2r	.	.
.	.	12g/L	.	.	.	.
.	.	12e-/J	.	.	.	.
!	!	!LO:tup:b	!	!	!	!
4G/	.	12r	.	.	.	.
.	.	12e-/L	.	.	.	.
.	.	12B-/J	.	.	.	.
=11	=11	=11	=11	=11	=11	=11
!	!	!LO:tup:b	!	!	!	!LO:HP:b
(4A-/	1E-	12r	.	4f/	Dzwoń	<
.	.	12d-/L 12f	.	.	.	.
.	.	12B-/J	.	.	.	.
!	!	!LO:tup:b	!LO:HP:b=2	!	!	!
4A-/	.	12r	<	4f/	do	.
.	.	12d-/L 12f	.	.	.	.
.	.	12B-/J	.	.	.	.
!	!	!LO:tup:b	!	!	!	!
4d-/	.	12r	.	4b-/	dom-	[
.	.	12b-/L	[	.	.	.
.	.	12f/J	.	.	.	.
!	!	!LO:tup:b	!	!	!	!
4c/)	.	12r	.	4a-/	-ku	.
.	.	12a-/L	.	.	.	.
.	.	12e-/J	.	.	.	.
=12	=12	=12	=12	=12	=12	=12
!	!	!LO:tup:b	!	!	!	!
4B-/	1E-	12r	.	4a-/	gdzie	.
.	.	12a-/L	.	.	.	.
!	!	!LO:TX:t=P:problem:8e- poprawione na 8d-	!	!	!	!
.	.	12d-/J	.	.	.	.
!	!	!LO:tup:b	!	!	!	!LO:HP:b
4B-/	.	12r	.	4g/	ob-	>
!	!	!	!LO:HP:b=2	!	!	!
.	.	12g/L	>	.	.	.
.	.	12d-/J	.	.	.	.
!	!	!LO:tup:b	!	!	!	!
4A-/	.	12r	.	(4f/	-fi-	]
.	.	12d-/L 12f	.	.	.	.
.	.	12B-/J	]	.	.	.
!	!	!LO:tup:b	!	!	!	!
4G/	.	12r	.	4e-/)	-cie	.
.	.	12e-/L 12f	.	.	.	.
.	.	12B-/J	.	.	.	.
!!LO:PB:g=original
=13	=13	=13	=13	=13	=13	=13
(4A-/	1E-	12r	.	4e-/	Won-	.
.	.	12e-/L	.	.	.	.
.	.	12c/J	.	.	.	.
4c/	.	12r	.	4a-/	-ne	.
.	.	12a-/L	.	.	.	.
.	.	12e-/J	.	.	.	.
4Bn/	.	12r	.	4g/	kwiat-	.
.	.	12g/L	.	.	.	.
.	.	12e-/J	.	.	.	.
4c/)	.	12r	.	4a-/	-ki	.
.	.	12a-/L	.	.	.	.
.	.	12e-/J	.	.	.	.
=14	=14	=14	=14	=14	=14	=14
(4G/	1E-	12r	.	2b-\	lśnią	.
.	.	12e-/L 12b-	.	.	.	.
.	.	12B-/J	.	.	.	.
4G/	.	12r	.	.	.	.
.	.	12e-/L 12b-	.	.	.	.
.	.	12B-/J	.	.	.	.
4F#X/	.	12r	.	2r	.	.
.	.	12e-/L 12an	.	.	.	.
.	.	12An/J	.	.	.	.
4G/)	.	12r	.	.	.	.
.	.	12e-/L 12b-	.	.	.	.
.	.	12B-/J	.	.	.	.
=15	=15	=15	=15	=15	=15	=15
(4A-/	1AA-	12r	.	4a-/	I	.
.	.	12e-/L 12a-	.	.	.	.
.	.	12c/J	.	.	.	.
!	!	!	!	!	!	!LO:DY:a
4G-X/	.	12r	.	4a-/	tam	<
!	!	!	!LO:HP:b=2	!	!	!
.	.	12e-/L 12a-	<	.	.	.
.	.	12c/J	.	.	.	.
4E-/	.	12r	.	4b-/	ró-	.
.	.	12g-X/L 12b-	.	.	.	.
.	.	12c/J	.	.	.	.
!LO:TX:t=P:problem:nieczytelny zapis	!	!	!	!	!	!
4B-/)	.	12r	[	4a-/	-ży	[
!	!	!LO:TX:t=P:problem:nieczytelny zapis	!	!	!	!
.	.	12g-/L 12a-	.	.	.	.
.	.	12c/J	.	.	.	.
=16	=16	=16	=16	=16	=16	=16
(4F/	1D-	12r	.	4a-/	szep-	.
!	!	!LO:TX:t=P:problem:nieczytelny zapis	!	!	!	!
.	.	12f/L	.	.	.	.
.	.	12A-/J	.	.	.	.
4En/	.	12r	.	4gn/	-nij	.
.	.	12d-/L 12gn	.	.	.	.
.	.	12B-/J	.	.	.	.
4F/	.	12r	.	(4a-/	skry-	.
.	.	12d-/L 12a-	.	.	.	.
.	.	12A-/J	.	.	.	.
4A-/)	.	12r	.	4f/)	-cie	.
.	.	12f/L	.	.	.	.
.	.	12d-/J	.	.	.	.
!!LO:LB:g=original
=17	=17	=17	=17	=17	=17	=17
(4c/	1E-	12r	.	4e-/	że	.
.	.	12e-/L	.	.	.	.
.	.	12c/J	.	.	.	.
!	!	!	!LO:HP:b=2	!	!	!LO:DY:a
4c/	.	12r	>	4e-/	po-	>
.	.	12a-/L 12ee-	.	.	.	.
.	.	12e-/J	.	.	.	.
4d-/	.	12r	.	(4f/	-zdra-	.
!	!	!LO:TX:t=P:problem:8a- poprawione na 8f	!	!	!	!
.	.	12f/L	.	.	.	.
!	!	!LO:TX:t=P:problem:8f poprawione na 8d-	!	!	!	!
.	.	12d-/J	]	.	.	.
4B-/)	.	12r	.	4d-/)	-wiam	]
.	.	12g/L 12ee-	.	.	.	.
!	!	!LO:TX:t=P:problem:8e- poprawione na 8d-	!	!	!	!
.	.	12d-/J	.	.	.	.
=18	=18	=18	=18	=18	=18	=18
(4A-/	1AA-	12r	.	2c/	Ją!	.
!	!	!LO:TX:t=P:problem:8cc poprawione na 8a-	!	!	!	!
.	.	(12a-/L	.	.	.	.
!	!	!LO:TX:t=P:problem:8e- poprawione na 8c	!	!	!	!
.	.	12c/J)	.	.	.	.
4E-/	.	12r	.	.	.	.
.	.	(12ee-/L	.	.	.	.
.	.	12c/J)	.	.	.	.
4A-/	.	12r	.	2r	.	.
.	.	(12cc/L	.	.	.	.
.	.	12e-/J)	.	.	.	.
4c/)	.	12r	.	.	.	.
.	.	(12a-/L	.	.	.	.
.	.	12e-/J)	.	.	.	.
=19	=19	=19	=19	=19	=19	=19
(4A-/	1AA-	12r	.	(>4a-/	I	.
.	.	12e-/L 12a- 12cc	.	.	.	.
!	!	!	!LO:HP:b=2	!	!	!
.	.	12c/J	<	.	.	.
!	!	!	!	!	!	!LO:HP:b
4G-X/	.	12r	.	4an/	tam	<
.	.	12e-/L 12an 12cc	.	.	.	.
.	.	12c/J	.	.	.	.
.	.	.	.	8qcc/	.	[
4d-/	.	12r	.	4b-/	ró-	.
.	.	12g-X/L 12b- 12ee-	[	.	.	.
.	.	12e-/J	.	.	.	.
4c/)	.	12r	.	4a-X/)	-ży	.
!	!	!LO:TX:t=P:problem:znaki: g- poprawiony na a-	!	!	!	!
.	.	12g-/L 12a-X 12ee-	.	.	.	.
.	.	12e-/J	.	.	.	.
=20	=20	=20	=20	=20	=20	=20
!	!	!	!	!	!	!LO:DY:b
(4en/	1D-	12r	p	4gn/	szep-	p
.	.	12dd-/L	.	.	.	.
.	.	12gn/J	.	.	.	.
*	*	*	*	*	*	*^
!	!	!	!	!	!	!LO:HP:b	!LO:HP:t=dim
4f/	.	12r	.	4a-/	-nij	>	>
.	.	12dd-/L	.	.	.	.	.
*	*	*	*^	*	*	*	*
!	!	!	!LO:HP:t=dim.:b=2	!	!	!	!	!
.	.	12a-/J	>	>	.	.	.	.
!	!	!	!	!	!	!	!LO:DY:a	!
4d-/	.	12r	.	.	(4f/	skry-	.	.
!	!	!LO:TX:t=P:problem:8ff poprawione na 8a-	!	!	!	!	!	!
.	.	12a-/L	.	.	.	.	.	.
.	.	12f/J	.	.	.	.	.	.
4B-/)	.	12r	.	.	4d-/)	-cie	] ]	.
!	!	!LO:TX:t=P:problem:8ff- poprawione na 8a-	!	!	!	!	!	!
.	.	12a-/L	.	.	.	.	.	.
.	.	12f-X/J	.	]	.	.	.	.
*	*	*	*v	*v	*	*	*v	*v
!!LO:LB:g=original
=21	=21	=21	=21	=21	=21	=21
!	!	!LO:TX:t=P:problem:t. 21 poprawione dźwięki	!LO:HP:b=2	!	!	!LO:DY:a
4c/	1E-;	12r	<	4c/	że	<
.	.	12a-/L	.	.	.	.
.	.	12e-/J	[	.	.	.
!	!	!	!	!LO:TX:a:t=rit.	!	!LO:DY:a
4c/	.	12r	.	4e-/	po-	[ >
.	.	12a-/L 12ee-	.	.	.	.
!	!	!LO:TX:b:t=rit.	!	!	!	!
.	.	12e-/J	.	.	.	.
!	!	!	!LO:HP:b=2	!	!	!
4Bn/	.	12r	>	4f/	-zdra-	.
.	.	12a-/L	.	.	.	]
.	.	12dn/J	.	.	.	.
4B-X;/	.	12r	.	(4e-/ 4g;	-wiam	.
.	.	12g;/L 12ee-	.	.	.	.
.	.	12d-X;/J	]	.	.	.
=22	=22	=22	=22	=22	=22	=22
!	!	!LO:TX:b=2:t=a tempo	!	!	!	!
(4A-/ 4c	1A-	12r	.	2a-/)	Ją!	.
.	.	12a-/L	.	.	.	.
.	.	12c/J	.	.	.	.
4c/	.	12r	.	.	.	.
!	!	!	!LO:HP:b=2	!	!	!
.	.	12a-/L	<	.	.	.
.	.	12e-/J	.	.	.	.
4e-/	.	12r	.	2r	.	.
.	.	12cc\L	.	.	.	.
.	.	12a-\J	.	.	.	.
4g-X/)	.	12r	.	.	.	.
.	.	12ee-\L	[	.	.	.
.	.	12cc\J	.	.	.	.
=23	=23	=23	=23	=23	=23	=23
*ped	*	*	*	*	*	*
(4f/	1D-	12r	.	1r	.	.
.	.	12aa-\L	.	.	.	.
.	.	12dd-\J	.	.	.	.
4d-/	.	12r	.	.	.	.
.	.	12ff\L	.	.	.	.
.	.	12a-\J	.	.	.	.
4A-/	.	12r	.	.	.	.
!	!	!	!LO:HP:t=dim	!	!	!
.	.	12dd-/L	>	.	.	.
.	.	12f/J	.	.	.	.
4F/)	.	12r	.	.	.	.
.	.	12a-/L	.	.	.	.
*Xped	*	*	*	*	*	*
.	.	12d-/J	.	.	.	.
=24	=24	=24	=24	=24	=24	=24
4E-/	[1AA-	12r	.	1r	.	.
.	.	12a-/L	.	.	.	.
!	!	!	!LO:HP:b=2	!	!	!
.	.	12c/J	>	.	.	.
4Dn/	.	12r	.	.	.	.
.	.	12a-/L	.	.	.	.
.	.	12Bn/J	.	.	.	.
!	!	!LO:TX:a:t=poco rit.	!	!	!	!
4E-/	.	12r	.	.	.	.
.	.	12a-/L	.	.	.	.
.	.	12c/J	.	.	.	.
4F-X/	.	12r	]	.	.	.
!	!	!LO:TX:t=P:problem:zapis ligatury	!	!	!	!
.	.	[12a-/L	.	.	.	.
.	.	12d-/J	.	.	.	.
=25	=25	=25	=25	=25	=25	=25
*ped	*	*	*	*	*	*
!	!	!LO:TX:t=P:problem:dynamika pp poprawiona na p	!LO:DY:b=2	!	!	!
!	!LO:T:n=1:a	!LO:T:n=1:a	!	!	!	!
[1E-	(1AA-_	[1c 1a]-_	p	1r	.	.
=26	=26	=26	=26	=26	=26	=26
!	!	!	!LO:DY:b=2	!	!	!
2AA-/] 2E-]	2AAA-\);	2c;/] 2a-]	pp	1r;	.	.
2r	2ryy	2r	.	.	.	.
*Xped	*	*	*	*	*	*
*v	*v	*	*	*	*	*
=||	=||	=||	=||	=||	=||
*-	*-	*-	*-	*-	*-
!!!system-decoration: s1{s2,s3}
!!!RDF**kern: > = above
!!!RDF**kern: < = below
!!!ENC: Katarzyna Serwa
!!!END: 2021-05-25
